src/lib/packages/icons/src/assets/line/notebook.svg

<svg xmlns="http://www.w3.org/2000/svg" width="24" height="24" fill="none"><path fill="currentColor" d="M17 2.25H7.5C5.082 2.25 3.75 3.582 3.75 6v1.25H3a.75.75 0 0 0 0 1.5h.75v6.5H3a.75.75 0 0 0 0 1.5h.75V18c0 2.418 1.332 3.75 3.75 3.75H17c2.418 0 3.75-1.332 3.75-3.75V6c0-2.418-1.332-3.75-3.75-3.75ZM19.25 18c0 1.577-.673 2.25-2.25 2.25H7.5c-1.577 0-2.25-.673-2.25-2.25v-1.25H6a.75.75 0 0 0 0-1.5h-.75v-6.5H6a.75.75 0 0 0 0-1.5h-.75V6c0-1.577.673-2.25 2.25-2.25H17c1.577 0 2.25.673 2.25 2.25v12ZM15 6.25h-5c-1.079 0-1.75.67-1.75 1.75v3c0 1.08.671 1.75 1.75 1.75h5c1.079 0 1.75-.67 1.75-1.75V8c0-1.08-.671-1.75-1.75-1.75Zm.25 4.75c0 .156-.03.214-.027.217a.512.512 0 0 1-.223.033h-5c-.151 0-.211-.027-.216-.027h-.001c-.004-.009-.033-.067-.033-.223V8c0-.156.03-.214.027-.217A.513.513 0 0 1 10 7.75h5c.182 0 .217.028.217.027.004.009.033.067.033.223v3Z"/></svg>

<svg width="24" height="24" viewBox="0 0 24 24" fill="none" xmlns="http://www.w3.org/2000/svg">
<path d="M17 2.25H7.5C5.082 2.25 3.75 3.582 3.75 6V7.25H3C2.586 7.25 2.25 7.586 2.25 8C2.25 8.414 2.586 8.75 3 8.75H3.75V15.25H3C2.586 15.25 2.25 15.586 2.25 16C2.25 16.414 2.586 16.75 3 16.75H3.75V18C3.75 20.418 5.082 21.75 7.5 21.75H17C19.418 21.75 20.75 20.418 20.75 18V6C20.75 3.582 19.418 2.25 17 2.25ZM19.25 18C19.25 19.577 18.577 20.25 17 20.25H7.5C5.923 20.25 5.25 19.577 5.25 18V16.75H6C6.414 16.75 6.75 16.414 6.75 16C6.75 15.586 6.414 15.25 6 15.25H5.25V8.75H6C6.414 8.75 6.75 8.414 6.75 8C6.75 7.586 6.414 7.25 6 7.25H5.25V6C5.25 4.423 5.923 3.75 7.5 3.75H17C18.577 3.75 19.25 4.423 19.25 6V18ZM15 6.25H10C8.921 6.25 8.25 6.92 8.25 8V11C8.25 12.08 8.921 12.75 10 12.75H15C16.079 12.75 16.75 12.08 16.75 11V8C16.75 6.92 16.079 6.25 15 6.25ZM15.25 11C15.25 11.156 15.2209 11.214 15.2229 11.217C15.2149 11.221 15.156 11.25 15 11.25H10C9.849 11.25 9.78894 11.223 9.78394 11.223C9.78294 11.223 9.78296 11.223 9.78296 11.223C9.77896 11.214 9.75 11.156 9.75 11V8C9.75 7.844 9.7791 7.78596 9.7771 7.78296C9.7851 7.77896 9.844 7.75 10 7.75H15C15.182 7.75 15.217 7.77798 15.217 7.77698C15.221 7.78598 15.25 7.844 15.25 8V11Z" fill="currentColor"/>
</svg>
